X: 464
T: Manchester Hornpipe
M:3/2
L:1/8
S: 8: MCJLSH3 http://www.cpartington.plus.com/links/Walsh.abc
Z: Pete Stewart 2004
B: Walsh "Third Book of the most Celebrated jiggs, Lancashire hornpipes, ..."
K:FDor
A2F4f2f2ed | e2B4A2G2FE | A2F4f2a2gf | f2c4B2A2GF ||
A2F2B2G2c2A2 | e2B4A2G2FE | A2F2B2G2c2A2 | f2c4B2A2GF ||
fgaf g2a2b2ag | a2gfg2a2=e2dc | fgafg2a2b2ag | f2c4B2A2GF ||
FGAF A2c2A2c2 | EFGEG2B2G2B2 | FGAF ABcA cd=ec | f2c4B2A2GF ||
f2F4fga2gf | g2E4gab2ag | a2F4Bc _d2cB | c2e4B2A2GF ||
c2f4g2a2gf | B2f4g2a2gf | A2f4g2a2gf | c2f4B2A2GF ||
fgaf gabg fgaf | g2e4B2G2FE | fgaf gaba fgaf | f2c4B2A2GF ||
ABc2Bc_d2c=de2 | B2G4A2G2FE | ABc2Bc_d2c=d=e2 | f2c4B2A2GF ||

%%sep 1 1 500
%%sep 1 1 500
